X: 2
T:Pete's Breakdown
R:reel
M:C|
L:1/8
K:Bm
|: "Bm"b2a2 "Em"f2e2 | "Bm"d2dc BcdB | "F#"c2Bc fedc | "Bm"Bcde f2df |
   "Bm"b2a2 "Em"f2e2 | "Bm"d2dc BcdB | "F#"c2Bc fedc | "Bm"Bbfd B4 :|
K:D
|: "D"D2A,D FFDF | A2FA dfed | "A"c(GG2) GBAG | "D"FDEC "A"DCB,A, |
 "D"D2A,D FFDF | A2FA dfed | "A"c2G2 GBAG | FABc "D"d4 :|
N:Portland Collection: Volume 2, pg 156 - abc by Peter Ostapenko 3/14/2007
N:Adapted by Peter Ostapenko 7/24/2007
N:A - Bm, B - D Major
